arrow-u-left-top-bold.svg

<svg fill="currentColor" viewBox="0 0 24 24"><path d="M13.5 21H6v-4h7.5c1.93 0 3.5-1.57 3.5-3.5S15.43 10 13.5 10H11v4L4 8l7-6v4h2.5c4.14 0 7.5 3.36 7.5 7.5S17.64 21 13.5 21"/></svg>

<svg  viewBox="0 0 24 24" fill="currentColor"><path  d="M13.5 21H6V17H13.5C15.43 17 17 15.43 17 13.5S15.43 10 13.5 10H11V14L4 8L11 2V6H13.5C17.64 6 21 9.36 21 13.5S17.64 21 13.5 21Z"/></svg>
